X:149
T: MORGEN KOMMT DER WEIHNACHTSMANN
N: B0640
O: Europa, Mitteleuropa, Deutschland
R: Kinder -, Weihnachts - Lied
M: 2/4
L: 1/8
K: D
 | dAAF | BAA2 |
BAGF | F2E2 |
AEEG | FED2 |
AEEG | FED2 |
dAAF | BAA2 |
BAGF | E2D2

@@@ Tune index: 2367
